X:106
T: ICH NEHM MEIN GLAESCHEN IN DIE HAND
N: E1146
O: Europa, Mitteleuropa, Deutschland
R: Trink -, Zech - Lied; Studenten - Lied
M: 2/4
L: 1/8
K: G
D | GGGG | FED2 |
EEFF | G2G
D | GGGG | FED2 |
EEFF | G2Gz |
BBBB | ccc2 |
AAAA | ddd2 |
BGAF | GBG

@@@ Tune index: 4790
